X: 40
T: No_46_Corn-grinding_Song_(a).krn
N: Derived from No_46_Corn-grinding_Song_(a).krn
%%abc-version 2.0
%%abcx-abcm2ps-target-version 5.9.1 (29 Sep 2008)
%%abc-creator hum2abc beta
%%abcx-conversion-date 2019/03/15 08:25:35
%%humdrum-veritas 3273550712
%%humdrum-veritas-data 652322517
%%linebreak <none>
%%barnumbers 0
L: 1/8
M: 3/4
K: C clef=bass
[K:clef=bass][M:3/4]C2C2C3/A,/ | 
C2C2C z/ C/ | 
[M:2/4]E2C3/D/ | 
C2C z | 
[M:3/8]C3/A,/A,//G,3// | 
[M:2/4]A,2A,2 | 
A,/G,3/ E,G,/G,/ | 
A,2A,2 | 
[M:3/4]A,/G,3/ E,C, E,/E,3/ | 
[M:2/4]C,2C,2 | 
z C, C,3/C/ | 
E2C3/D/ | 
C2C z ]|:  
[M:3/8]C3/A,/A,//G,3// | 
[M:2/4]A,2A,2 | 
A,/G,3/ E,G,/G,/ | 
A,2A, z | 
[M:3/4]A,/G,3/ E,C,/C,/ E,/E,3/ | 
[M:2/4]C,2C,2 | 
z C, C, z :|]  
z C,C,2 :|]  
z C, C,3/C/ | 
E2C3/D/ | 
C2C z | 
[M:3/8]C3/A,/A,//G,3// | 
[M:2/4]A,2A,2 | 
A,/G,3/ E,G,/G,/ | 
A,2A, z | 
[M:3/4]A,/G,3/ E,C,/C,/ E,/E,3/ | 
C,2E,C, C, z | 
[M:2/4]G,G, E,/E,/C,/C,/ | 
[M:3/4]E,G, E,/C,3/ C, z | 
[M:2/4]C,E, C,A,, | 
!accent!C,C, !accent!C,C, | 
[M:3/4]!accent!C,G, G,/E,3/ C, z | 
E,/C,/C, E,/C,/C, E,G, | 
C,C, C,C, C,C, | 
C,C,z4 |]  



